X:1
T:Mike Buckley's
L:1/8
Q:1/8=270
M:2/4
I:linebreak $
K:A
V:1 treble 
V:1
 ce/c/ BA | FE A2 | cB Bc/B/ | Ac/e/ fe | ce/c/ BA | FA AB | cB/c/ ec | BA A2 | ce/c/ BA | FA AB |$ %10
 ce/c/ Bc/B/ | Ac/e/ fe | ce/c/ BA | FA AB | cB/c/ ec | BA A2 || ae fe | cA ed/e/ | a2 fe | %19
 ce Bc/B/ |$ ae g/f/e | ce fe | c/d/e/c/ Be | cA A2 :| %24
